X: 16438
T: Hag At The Churn, The
R: jig
M: 6/8
K: Dmixolydian
|:~A2G ADD|~A2G Adc|~A2G ADD|EFG EFG:|
AdB c3|Add efg|AdB c2G|E3 GED|
AdB c3|Add efg|fed edB|cEE GED||

